src/svg/icon-location.svg

<svg width="16" height="17" viewBox="0 0 16 17" fill="none" xmlns="http://www.w3.org/2000/svg">
<path d="M8 6.80516C7.7504 6.80516 7.51101 6.89418 7.33452 7.05263C7.15802 7.21109 7.05886 7.426 7.05886 7.65009V9.33997C7.05886 9.56406 7.15802 9.77897 7.33452 9.93743C7.51101 10.0959 7.7504 10.1849 8 10.1849C8.2496 10.1849 8.48899 10.0959 8.66548 9.93743C8.84198 9.77897 8.94114 9.56406 8.94114 9.33997V7.65009C8.94114 7.426 8.84198 7.21109 8.66548 7.05263C8.48899 6.89418 8.2496 6.80516 8 6.80516ZM15.962 6.53478C15.8372 5.29661 15.3566 4.10873 14.5671 3.08735C13.7776 2.06597 12.7063 1.24608 11.458 0.707874C10.2097 0.169672 8.82723 -0.0684015 7.44573 0.0169455C6.06423 0.102292 4.73106 0.508137 3.57666 1.19477C2.58771 1.78846 1.7575 2.57143 1.14566 3.48742C0.533815 4.40341 0.155536 5.42969 0.037993 6.49253C-0.0773127 7.54841 0.0706259 8.6141 0.471076 9.61227C0.871525 10.6104 1.51444 11.5161 2.35319 12.2635L7.34121 16.7501C7.4287 16.8293 7.53279 16.8921 7.64747 16.935C7.76216 16.9779 7.88517 17 8.00941 17C8.13365 17 8.25666 16.9779 8.37135 16.935C8.48604 16.8921 8.59013 16.8293 8.67762 16.7501L13.6468 12.2635C14.4856 11.5161 15.1285 10.6104 15.5289 9.61227C15.9294 8.6141 16.0773 7.54841 15.962 6.49253V6.53478ZM12.3292 11.0721L8 14.9588L3.67078 11.0721C3.03277 10.4993 2.54405 9.80665 2.23975 9.04404C1.93545 8.28142 1.82312 7.46775 1.91085 6.66152C1.99915 5.84286 2.28897 5.05205 2.75935 4.34626C3.22974 3.64047 3.86894 3.03733 4.63073 2.58047C5.62923 1.98499 6.80128 1.66734 8 1.66734C9.19872 1.66734 10.3708 1.98499 11.3693 2.58047C12.1288 3.03557 12.7665 3.63603 13.2368 4.33873C13.7071 5.04143 13.9982 5.82892 14.0891 6.64462C14.1797 7.45358 14.0688 8.27051 13.7644 9.03625C13.4601 9.802 12.9698 10.4974 12.3292 11.0721ZM8.86584 4.75196C8.84705 4.70005 8.81839 4.65146 8.78114 4.60832L8.66821 4.48158C8.55585 4.3858 8.41889 4.31641 8.26949 4.27956C8.12009 4.24271 7.96286 4.23954 7.81177 4.27035H7.64237L7.47296 4.34639L7.33179 4.45623L7.21886 4.58297C7.18161 4.62611 7.15295 4.6747 7.13416 4.72661C7.1055 4.77692 7.08641 4.83118 7.07769 4.88715C7.06208 4.96234 7.05577 5.03885 7.05886 5.11528C7.05559 5.22885 7.08135 5.34157 7.13416 5.44481C7.1821 5.54453 7.24897 5.63602 7.33179 5.71519C7.42137 5.79414 7.52674 5.85721 7.64237 5.90107C7.87276 5.97965 8.12724 5.97965 8.35763 5.90107C8.47201 5.85515 8.57699 5.79231 8.66821 5.71519C8.75103 5.63602 8.8179 5.54453 8.86584 5.44481C8.91529 5.34061 8.94089 5.22854 8.94114 5.11528C8.94575 5.06185 8.94575 5.00818 8.94114 4.95474C8.93238 4.88311 8.90671 4.81398 8.86584 4.75196Z" fill="currentColor"/>
</svg>

<svg xmlns="http://www.w3.org/2000/svg" width="16" height="17" fill="none" viewBox="0 0 16 17"><path fill="currentColor" d="M8 6.805a1 1 0 0 0-.665.248.8.8 0 0 0-.276.597v1.69a.8.8 0 0 0 .276.597 1 1 0 0 0 .665.248c.25 0 .489-.09.665-.248a.8.8 0 0 0 .276-.597V7.65a.8.8 0 0 0-.276-.597A1 1 0 0 0 8 6.805m7.962-.27a6.74 6.74 0 0 0-1.395-3.448c-.79-1.021-1.86-1.84-3.109-2.38a8.8 8.8 0 0 0-4.012-.69 8.6 8.6 0 0 0-3.87 1.178 7.6 7.6 0 0 0-2.43 2.292A6.74 6.74 0 0 0 .038 6.493a6.5 6.5 0 0 0 .433 3.12 7.1 7.1 0 0 0 1.882 2.65l4.988 4.487q.133.12.306.185a1.03 1.03 0 0 0 .724 0 1 1 0 0 0 .307-.185l4.969-4.486a7.1 7.1 0 0 0 1.882-2.652 6.5 6.5 0 0 0 .433-3.12zm-3.633 4.537L8 14.96l-4.33-3.887a5.45 5.45 0 0 1-1.43-2.028 4.96 4.96 0 0 1-.33-2.382c.09-.82.379-1.61.85-2.316A5.9 5.9 0 0 1 4.63 2.58 6.6 6.6 0 0 1 8 1.667c1.199 0 2.37.318 3.37.913a5.9 5.9 0 0 1 1.867 1.759c.47.702.761 1.49.852 2.306a4.96 4.96 0 0 1-.325 2.391 5.44 5.44 0 0 1-1.435 2.036m-3.463-6.32a.5.5 0 0 0-.085-.144l-.113-.126a1 1 0 0 0-.399-.202 1.05 1.05 0 0 0-.457-.01h-.17l-.169.076-.141.11-.113.127a.5.5 0 0 0-.085.144.5.5 0 0 0-.056.16 1 1 0 0 0-.02.228.7.7 0 0 0 .076.33q.073.15.198.27.136.12.31.186c.23.079.485.079.716 0q.172-.07.31-.186.125-.12.198-.27a.8.8 0 0 0 .075-.33 1 1 0 0 0 0-.16.5.5 0 0 0-.075-.203"/></svg>
